X: 29290
T: New Road To Alston
R: reel
M: 4/4
K: Aminor
A3B c2c2|AGAB c2c2|edcB A2Ae|dcBA BAG2|
A3B c2c2|AGAB c2c2|e2ef edcB|ABAG A2A2:|
|:e2e2 c2ce|a2a2 e2ef|edcB A2Ae|dcBA BAG2|
e2e2 c2ce|a2a2 e2e2|e2ef edcB|ABAG A2A2:|

